!!!COM: Bach, Johann Sebastian
!!!OTL: 46. Vom Himmel hoch, da komm' ich her
!!!ONM: No. 46
!!!OCL: Erk
!!!SCA: BWV 248.9
!!!YOE: Riemenschneider, Albert
!!!OPR: 371 Harmonized Chorales and 69 Chorale Melodies with Figured Bass
!!!OPT: Bach Chorale Harmonizations
!!!ONB: From the end of the "Christmas Oratorio"
**harm	**root	**kern	**kern	**kern	**kern
!	!	!bass	!tenor	!alto	!sprno
*Iorgan	*Iorgan	*Iorgan	*Iorgan	*Iorgan	*Iorgan
*k[b-e-]	*k[b-e-]	*k[b-e-]	*k[b-e-]	*k[b-e-]	*k[b-e-]
*B-:	*B-:	*B-:	*B-:	*B-:	*B-:
*met(c)	*met(c)	*met(c)	*met(c)	*met(c)	*met(c)
*M4/4	*M4/4	*M4/4	*M4/4	*M4/4	*M4/4
*MM60	*MM60	*MM60	*MM60	*MM60	*MM60
I	4DD	4BB-	4d	4f	4b-
=1	=1	=1	=1	=1	=1
V	4AA	4.F	4c	8f	4a
.	.	.	.	8e	.
vi7d	4BB	.	4B-	4d	4g
.	.	8E	.	.	.
V	4AA	8F	4A	4c	4a
.	.	8E-	.	.	.
Ib	4DD	4D	8B-	8d	4f
.	.	.	8A	8c	.
=2	=2	=2	=2	=2	=2
IV	4GG	8E-	8G	4B-	4g
.	.	8D	8F	.	.
viib	4CC#	4C	4E-	4c	4a
I;	4DD;	4BB-;	4F;	4d;	4b-;
I	4DD	8BB-	4F	8d	4b-
.	.	8C	.	8e-	.
=3	=3	=3	=3	=3	=3
Ib	4DD	4D	4B-	8f	4b-
.	.	.	.	8e-	.
Ib	4DD	8D	4B-	4d	4f
.	.	8E-	.	.	.
V	4AA	4F	4A	4c	4f
V7c/IV	8DD	8F	8A-	4B-	8d
IV	8GG	8E-	8G	.	8e-
=4	=4	=4	=4	=4	=4
Ib	4DD	8D	4F	4B-	4f
.	.	8C	.	.	.
V7b	4AA	8BB-	4F	4c	4e-
.	.	8AAy	.	.	.
I;	4DD;	4BB-;	4F;	4B-;	4d;
I	4DD	4BB-	4F	8B-	4d
.	.	.	.	8c	.
=5	=5	=5	=5	=5	=5
!!linebreak: 2
V7b/ii	4BB	4BB	4F	4d	4g
II	4EE	8C	4E	4c	4g
.	.	8BB-	.	.	.
Vb	8AA	8AA	8F	8c	8f
viib/V	8GG#	8GG	8B-	8e	8g
V	4AA	4FF	8A	4f	4a
.	.	.	8G	.	.
=6	=6	=6	=6	=6	=6
Ib	8DD	8D	8F	4.f	8b-
Vb	8AA	8C	8A	.	8a
vii7b	8CC#	8BB-	8d	.	4g
V/V	8EE	8C	8c	8e	.
V;	4AA;	4FF;	4A;	4c;	4f;
vi	8BB	8G	8B-	8d	4b-
V7/V	8EE	8C	[8G	8c	.
=7	=7	=7	=7	=7	=7
V	8AA	4F	8G]	8c	4a
iiib	8FF#	.	8F	[8d	.
vi7b	8BB	8BB-	8F	8d]	4g
iib	8EE	[8E-	8E-	8c	.
V7d	8AA	8E-]	4F	8A	4f
Ib	8DD	8D	.	8B-	.
IV	8GG	8E-	8E-	8G	8g
iii	8FF#	8F	8D	8A	8f
=8	=8	=8	=8	=8	=8
IVb	4GG	8G	4BB-	4.B-	8e-
.	.	8E-	.	.	8d
V	8AA	8F	8F	.	4c
V7	8AA	8FF	8E-	8A	.
I;	4DD;	4BB-;	4D;	4F;	4B-;
==	==	==	==	==	==
*-	*-	*-	*-	*-	*-
!!!CDT: 1685/3//-1750/7/28
!!!OCY: Deutschland
!!!AGN: chorale
!!!AST: Baroque
!!!AIN: vox
!!!YOY: 1941
!!!PPP: New York; London
!!!PPR: G. Schirmer
!!!ENC: David Huron
!!!EED: David Huron
!!!YEN: United States of America
!!!YER: 1992
!!!YEC: Copyright 1992 David Huron
!!!YEM: Rights to all derivative electronic formats reserved.
!!!YER: March 20, 1996
!!!AMT: simple quadruple
!!!EEV: 1.1
!!chor2scor: -l 2 -s 0.6 -o %b.pmx
